-----BEGIN PGP PUBLIC KEY BLOCK-----

mQINBF2c1BwBEAC7aYYPFbsRfcrM1D+HAq92ziz0HwIa0cvyq76CUDZKYOAHaxiL
JXYLyqIFm1zGGObnqn5YDK6z8inC6IBm9+FBu5KZZ4ceJZn1hD1Uk3iJKqdwMWTA
5LBIvIRB7D/lFWPlNwLSNnFs/jWPYzMWyR6IqtcNZ4zyKecHwLdyuq8LREbfbZUk
UXhsj+qLLFfHkO9kQMVMZp7VnpI8+QKLdLOyPQPIHUe0ZQLMGlnaIpbS3V6RhhsV
7CsPZUj5oSN9HUFvmKzPjlZD21hEm9tMbGUTu/9waIXvknjUjDk1sSlCmGLBtO5L
A0Be8AoBO/Sb8tek+dlaS5f2H10rAoi+1amy4o9W29GJvV8px+fzLMt9nCI9fdom
1g8APCHCKbX4gFCai9YFIKiDZP1VsXb3lgvf+QWAyXL6sWgjRBtcndtS+owO0/Ty
v91s9anoMzMTQJyq7g1NAxq2prvvkQWwXp6kLzVxsdsLORgnrEyC8veD2D3fV5Iz
fFfxaZ6uH+OGMyHf0YvnkmV4d7gQ2RjHTWgHAYU3dZMBGxEpH+thCBvzWdopiPgd
+lvmQjAoONOcsPi2YBwRir9aggeybkR9gxXeWieWULdJjMVWlMCKDZoPuL2OpNvv
moXbmArGHEYbZJItjWvlPVjB5mQblCw47WvxHm3x+t/WiPFeJInJncCmYQARAQAB
tDNBc3RlcmlzayBEZXZlbG9wbWVudCBUZWFtIDxhc3Rlcmlza3RlYW1AZGlnaXVt
LmNvbT6JAk4EEwEIADgWIQTy/JPbdYe9H7SeBFpdmEvjNxkc5wUCXZzUHAIbAwUL
CQgHAgYVCgkICwIEFgIDAQIeAQIXgAAKCRBdmEvjNxkc59ctD/9H7RKMiEcU4/hQ
jetQJbnGhtcS6/Xnu65oDHCY8Q+r29Z59ftMBG+8PjsE6raNob763MlLYmZfL0yW
Bf5vmAJA8ZY7krSr/7ue0k3JuuY0+S1+1pYJ/6/HJVsNe0ICgC9C2LXsLBSImfRI
DrJX7Q2rbO7hyu3tJvvH/Uy3SGkx1zJnlGh3lyGduot89AuhnFY+ow0rBo84J+UZ
acDfYFjgo6YXPKXxNFbzYFEU6uopCr1KHFRM1zh5TQNQUflVR2HYDOWa/f94CtEL
xf6lQytmxvE3Pw5SINDxfb6N2dj5rMGAhwUlFd//mNBxLi9XV7aCrN01GDHaMYuh
XYs2yN9M6mPaFlBovM5CDSJJ6+Vq89yd4u8FKc7DCXJg+d0YXfO7rbraWGDs4J44
oLIbtD2+Y8prow6WQOX3zDXR6Tzn1pQedG9BEohsob/U03V2HzBfZ02vi4/vsgaA
yakNd7eoZaJdSEdr/cIDrLD1Zeo1hi+eLlehkAAcOGhjZ/58L5KwGOuMsODGblyK
/6f2fu49yQ5BDIyZDunmcpWY1hIL+mqWTdHk0N/VIFp8ncy0LZ5vhUT4/QJL32x6
BlKU0v11JXMmGJ/ZZMmd8798KM3hY0ogCXTz8doel/fck4eFg/lLMzE3qgykXo9Z
Z/+rxkY+n9zT+bDOA7bmznv7a8+M7YkBMwQQAQgAHRYhBCGpHrHwEiUpk+m/SjaK
szK1mXXzBQJdnNSTAAoJEDaKszK1mXXzVoYH/RxlqumVGx/UlGNI+1JC02jqDiC4
BJlFSno8OM6RWshuX+FY5rIUeorBux0XxKNxI6mgMXeBKpQBnzFGdhpchZQ+aIUr
OgK6XQNvN+BUV7aUUs2Cn+EY7O8j7/Hvio9egeT5iebRQTwYHhs6zSxFEwCjJSLE
bRRIGbtFwtlgR12VnvN0TGROaMbOiXeBOQ2UxX1X6E6O5nlCKdS5ONQe6I87mQLt
/L1ZmO83FQW1o+FNT7t55Urs96uqerGlIGK2axEIpTKEB6Xk28qzEcpWagO+Gcl5
HHgErd/DgwgiEkxx5wR9Ku/adME4Zgal5hFelc5/rL16BEP0aGHKdT6bMNSIRgQQ
EQIABgUCXZzbrgAKCRBstE5Ve9mC2KLCAJ98z6bXD89XZCSJcpnrgCVPw7BtqgCd
HiTJgtBZZORcv0KIu7b+gXT/W5qJAhwEEAECAAYFAl2c4egACgkQnnbjpCNBzgRX
1g/9Gc6B8THv+gik9LmXmXi472z+n2q7n2ntxpmFcVF6Oo5XLjUc1zkA5yxs2IJa
8xw9yC52FMqSdX/3OgitNtU1F2Q6nkR2u8j+yJjuBAn8KO43z1kh2idAZ9s8AANH
wm62IQAFFSRQ2P2bYa2VRSQtxDn9FLm3IlBK6jDLRfMpnH4TVgWH/VRMeVOKAouM
+Q22CHm2H5rs809If8R9jDXO4vCRZfEbIYsCLIjpu/7iF1poqfTW0O3tFhD7+9UE
yfSPBk3p3Vy0mzJ2E21FXDixWoqPFDM3IQfdzaAOFNa1rhLXAP7G7VY77++Eeti4
wfz7qjFkM+KHyra2JP9XPPw9eRyVdb54p3yp9k9cjhG7iJxgoPT2f+KYuKOA1ntH
V7Gzwt1S7Ev+xGBtqxJnrsprpFFWzn2zCkrI92oC4KB0hptsJ7ZNagN82XHA28iz
YPi/2dDmuZoHVH0inH3iKeqwLAEUg0hRpuyWaPN4AcFU6jC56kgxiTT4ax5/7oUO
uWPekwxKp0JJRiQmxkiAWYh2/Iv8HP92iFTPyJTM8zoa2fSrLNFrkvf+8+mjBax3
3XB0AFAoOE9D8lD7I5tvLqaOoz89gUIz/NPUEvcMVRMonuAlf40RTFAe8hx/DuyS
gdesUSqPTa+lYbTiaNPc07DLe4BtdVaQc9ZssURWIlqGQrCIXQQQEQIAHRYhBGOd
ky1RcFMvjCAMzZxZ8AB3fcxFBQJdnObJAAoJEJxZ8AB3fcxF0nsAnRUKFGyzR6Bb
4ujQdQ/TQKYCb/NAAKCYpEOlIoS6Dk6hImC8Ij31hzo52LkCDQRdnNQcARAA6i5H
8sumXTA9jtS5Dt36TJbz7xPUqZYXx/aumI9T0XfV6gMHGCkg+419IOhCd7xMV8rU
HG5AQteora9vdLgVkxTabR/s4F6+689vqx0/Emvz5+jKQjgp+3wzvp6O3tv93n3O
3Gc6yzoOZgmMca6xY1QHIcWXB6K5n76M95zvtP96QU4CCm2GNZNFJZLBx3ILwBQR
Iqaqy0U6K/7wsYfk4YKw2RftzaCbkLChdTZ6eeUGf3KPQ6lRRp1e3DPQr9aN/0tx
hlshUfGU0+ekApvo3swED8EW5EizmT2i8orybBbNyBLPe85bw11Fcc/X47okQwho
3XFV8OCuiunjMEiY28ZWoywreTZ7AitQnfq8mzuHUk+V0vtOlY8XnRxF0hHmIzqZ
sbmGlzBdUVQkHCu77rjlJedF5M3m7u2I+PPuKTYnBSUz6drk9d9d/Bhjyd/4RPH0
fv+9YELz7zWmiCJ9scIqsiDkAgtepdTKHrXmWnXS1TofvQdC4DBNBsi03aGa3yAO
6sOXj07Tm945cuiOc3Hyp/Wgjs8pIwZEjhoiYu0oE1i+aV89OJkPNWMPju0tK0vw
eGw7SGb3M4QNse26UdwykjDBSLfnvP0kZ7+BSkKR6hk02fsrg+mX41Wj965uVd0v
hUToh7jmAMDkiqfNA3b9JR4Lep5/jb7LSJHvUvkAEQEAAYkCNgQYAQgAIBYhBPL8
k9t1h70ftJ4EWl2YS+M3GRznBQJdnNQcAhsMAAoJEF2YS+M3GRzn4JAP/2owSI50
UbnRvRY61K2KNag4OZAYJjUcIcCeOI7pAJC5sJsz88YJrggUeye66RRGoiFWirSe
kAANFfM7xShg/HzdJiMDSdiIqpURd+7mGtiMzXaPFfg+e+5kjvruHnQxlU4GvWx/
UOPKhAti9OnEwZz2eBSvNd75B8w+yLjKZOMtK34mhyYkwY91V3yzaCVfipsmIGVy
4mGsKReMIYsKKLDx33VFeLQ7NsA4Su5xm06JcyAWMUYEKYGsAey7qrCiPvXOJJBq
+3Ns1ShiTA3GKqoEj1kzIGcSuwQf5fzhQY/Kd1K6/DfwbbT5K1IBWCqUanjpkKZW
oztyWBFts0XCJvlbkEqQiIocdbFLI1N44k8xygf/Ge7aW1zzWj5YfZC83IFY8V/b
xGcbPo0PfAyLERaCZActA/gf4vcmQkS+Mrf3LPe6FBhQE34wanu1XcQqRfsH344+
XAc6J8l+NcooJvxGiurPoR54Ti1oAKORfC2u6/rVEMYYXzby6cGtylDFapn63ZG6
kqvo192xJP9VXKl0PW6sFgdLp78aWRcRPsXZ4cHlRYqoNWN8MARn3Iy33xlhTgH9
mcdkuHk+n2cC+bIrhWOGafj0SRFm4jkFYq0UPVHL43uYpuNjInPZKMjAp4gmee+R
I6IG4YTVxRPUoRmGwS9DTyKEQXnjw3rZTcqy
=YVz3
-----END PGP PUBLIC KEY BLOCK-----
